X:1
T:Ora Labora, 4.10.10.10.4
T:Thomas Tertius Noble, 1918
T:Ora Labora, 4.10.10.10.4
T:Public Domain
C:Thomas Tertius Noble, 1918
Z:Public Domain
%%score 1 ( 2 3 ) ( 4 5 )
L:1/8
M:4/2
K:Ab
V:1 treble 
V:2 treble 
V:3 treble 
V:4 bass 
V:5 bass 
V:1
 E4 F2 E2 E8 | A4 G2 F2 E4 C4 | F2 F2 E2 D2 E8 | c4 A2 A2 G4 F4 | G2 A2 G2 C2 F8 | F4 G2 G2 A4 E4 | %6
 F2 G2 A2 B2 c4 A4 | d12 c2 B2 | c8 |] %9
V:2
 [CE]4 [DF]2 [B,E]2 [CE]8 | [FA]4 [EG]2 [DF]2 [B,E]4 [A,C]4 | [DF]4 [CE]2 [A,D]2 [CE]8 | %3
 [CFc]4 [CFA]4 [=B,G]4 [B,F]4 | G2 A2 G2 C2 [A,CF]8 | [A,DF]4 [B,EG]4 [A,EA]4 [B,DE]4 | %6
 [A,CF]2 [B,=EG]2 [CFA]2 [_EGB]2 [EAc]4 [CEA]4 | [D-Ad-]4 [DFAd-]4 [DE-G-d]4 [CE-G-c]2 [B,EGB]2 | %8
 [CEAc]8 |] %9
V:3
 x16 | x16 | x16 | x16 | B,8 x8 | x16 | x16 | x16 | x8 |] %9
V:4
 [A,,A,]4 [D,A,]2 [E,G,]2 z4 G,4 | [F,C]4 [C,C]2 [D,A,]2 [E,G,]4 z2 E,2 | %2
 [D,A,]2 [B,,G,]2 [C,A,]2 [B,,F,]2 A,,4 G,,4 | F,,2 G,,2 F,,2 E,,2 [=D,,F,]4 [_D,,F,-]4 | %4
 [C,,F,]4 [C,=E,]4 F,,4 _E,,4 | [D,,F,]4 [D,E,]4 [C,E,]4 [B,,G,]4 | %6
 [A,,F,]2 [G,,G,]2 [F,,A,]2 [E,,B,]2 [A,,C]4 [_G,,E,]4 | F,2 A,2 D2 C2 B,4 E,4 | [A,,E,A,]8 |] %9
V:5
 x8 A,8 | x12 F,4 | x8 A,8 | [C,A,]4 F,4 x8 | x8 F,8 | x16 | x16 | F,,4 B,,4 E,,8 | x8 |] %9

